src/images/logo-gs.svg

<svg xmlns="http://www.w3.org/2000/svg" width="48" height="48"><path fill="#43a047" d="M37 45H11a3 3 0 0 1-3-3V6a3 3 0 0 1 3-3h19l10 10v29a3 3 0 0 1-3 3z"/><path fill="#c8e6c9" d="M40 13H30V3z"/><path fill="#2e7d32" d="m30 13 10 10V13z"/><path fill="#e8f5e9" d="M31 23H15v14h18V23h-2zm-14 2h4v2h-4v-2zm0 4h4v2h-4v-2zm0 4h4v2h-4v-2zm14 2h-8v-2h8v2zm0-4h-8v-2h8v2zm0-4h-8v-2h8v2z"/></svg>

<svg xmlns="http://www.w3.org/2000/svg"  viewBox="0 0 48 48" width="48px" height="48px"><path fill="#43a047" d="M37,45H11c-1.657,0-3-1.343-3-3V6c0-1.657,1.343-3,3-3h19l10,10v29C40,43.657,38.657,45,37,45z"/><path fill="#c8e6c9" d="M40 13L30 13 30 3z"/><path fill="#2e7d32" d="M30 13L40 23 40 13z"/><path fill="#e8f5e9" d="M31,23H17h-2v2v2v2v2v2v2v2h18v-2v-2v-2v-2v-2v-2v-2H31z M17,25h4v2h-4V25z M17,29h4v2h-4V29z M17,33h4v2h-4V33z M31,35h-8v-2h8V35z M31,31h-8v-2h8V31z M31,27h-8v-2h8V27z"/></svg>
